ACP3/Modules/ACP3/System/Resources/Assets/svgs/solid/tags.svg

<svg xmlns="http://www.w3.org/2000/svg" viewBox="0 0 512 512"><!--! Font Awesome Free 6.1.2 by @fontawesome - https://fontawesome.com License - https://fontawesome.com/license/free (Icons: CC BY 4.0, Fonts: SIL OFL 1.1, Code: MIT License) Copyright 2022 Fonticons, Inc. --><path d="M472.8 168.4C525.1 221.4 525.1 306.6 472.8 359.6L360.8 472.9C351.5 482.3 336.3 482.4 326.9 473.1C317.4 463.8 317.4 448.6 326.7 439.1L438.6 325.9C472.5 291.6 472.5 236.4 438.6 202.1L310.9 72.87C301.5 63.44 301.6 48.25 311.1 38.93C320.5 29.61 335.7 29.7 344.1 39.13L472.8 168.4zM.0003 229.5V80C.0003 53.49 21.49 32 48 32H197.5C214.5 32 230.7 38.74 242.7 50.75L410.7 218.7C435.7 243.7 435.7 284.3 410.7 309.3L277.3 442.7C252.3 467.7 211.7 467.7 186.7 442.7L18.75 274.7C6.743 262.7 0 246.5 0 229.5L.0003 229.5zM112 112C94.33 112 80 126.3 80 144C80 161.7 94.33 176 112 176C129.7 176 144 161.7 144 144C144 126.3 129.7 112 112 112z"/></svg>

<svg xmlns="http://www.w3.org/2000/svg" viewBox="0 0 512 512"><!--! Font Awesome Free 6.2.0 by @fontawesome - https://fontawesome.com License - https://fontawesome.com/license/free (Icons: CC BY 4.0, Fonts: SIL OFL 1.1, Code: MIT License) Copyright 2022 Fonticons, Inc. --><path d="M345 39.1L472.8 168.4c52.4 53 52.4 138.2 0 191.2L360.8 472.9c-9.3 9.4-24.5 9.5-33.9 .2s-9.5-24.5-.2-33.9L438.6 325.9c33.9-34.3 33.9-89.4 0-123.7L310.9 72.9c-9.3-9.4-9.2-24.6 .2-33.9s24.6-9.2 33.9 .2zM0 229.5V80C0 53.5 21.5 32 48 32H197.5c17 0 33.3 6.7 45.3 18.7l168 168c25 25 25 65.5 0 90.5L277.3 442.7c-25 25-65.5 25-90.5 0l-168-168C6.7 262.7 0 246.5 0 229.5zM144 144c0-17.7-14.3-32-32-32s-32 14.3-32 32s14.3 32 32 32s32-14.3 32-32z"/></svg>
